X:1
T:Title
%%score ( 1 2 ) { 3 | 4 }
L:1/8
Q:1/4=96
M:2/4
K:Ab
V:1 treble nm="Grand Piano, Soprano"
V:2 treble 
V:3 bass nm="Choir Pad, Katla, David S. Hakes, 1878"
V:4 bass 
V:1
 [CE] [Ec]2 [DB] | [CA][EA] [EG]2 | E [Ed]2 [Ec] | [DB] [CA]3 | E [Ee]2 [Ed] | [Ec][Ec] [EB]2 | %6
w: By~David~Stiles~Hakes,~1878 * *||||||
 z .d3 | [DG] [CA]3 | [EA] [FA]2 [Ac] | [FA][FA] [=EG]2 | [=EG] F2 [FA] | [DF] [CE]3 | %12
w: ||||||
 E [Ee]2 [Ed] | [Ec][Ec] [EB]2 | z .d3 | [DB] [CA]3 | [CE] [Ec]2 [EA] | [DF] [CE]3 | E [Ed]2 [Ec] | %19
w: |||||||
 [DB] [CA]3 | E [Ee]2 [Ed] | [Ec][Ec] [EB]2 | z .d3 | [DB] [CA]3- | [CA]4 |] %25
w: ||||||
V:2
 x4 | x4 | x4 | x4 | x4 | x4 | [Ec]D F[EB] | x4 | x4 | x4 | x4 | x4 | x4 | x4 | [Ec]D F[EG] | x4 | %16
 x4 | x4 | x4 | x4 | x4 | x4 | [Ec]D F[EG] | x4 | x4 |] %25
V:3
 A, A,2 A, | A,C B,2 | G, B,2 A, | G, A,3 | C C2 B, | A,A, G,2 | A, B,2 G, | B, A,3 | C C2 C | %9
 CC C2 | B, A,2 A, | A, A,3 | C C2 B, | A,A, G,2 | A, B,2 B, | G, A,3 | A, A,2 A, | A, A,3 | %18
 A, B,2 A, | G, A,3 | C C2 B, | A,A, G,2 | A, B,2 B, | G, A,3- | A,4 |] %25
V:4
 A,, A,,2 A,, | A,,E, E,2 | E, E,2 E, | E, A,,3 | A, A,2 A, | z E, E,2 | C, B,,2 E, | E, A,,3 | %8
 A,, F,2 F, | F,C, C,2 | C, D,2 D, | D, A,,3 | A, A,2 A, | z E, E,2 | C, B,,2 E, | E, A,,3 | %16
 A,, A,,2 C, | D, A,,3 | C, E,2 E, | E, A,,3 | A, A,2 A, | z E, E,2 | C, B,,2 E, | E, A,,3- | %24
 A,,4 |] %25

